X: 1
T: Aunt Mary's (Canadian) Jig
M: 6/8
L: 1/8
K: D
[| "D"f2f fga | d3 dcB | ABA "B7"AGF | "Em"E3- E3 |  "A7"e2e efg | e2d c2B | A2A ABA | "D"F6 |
 | "D"f2f fga | d3 dcB | ABA "B7"AGF | "Em"E3- E3 |  "A7"e2e efg | e2d c2B | A2A ABc | "D"d3- d ||
FG \
|| "D"ABA faf | e2d d3 | AFA "B7"BcB | "Em"A2G G3 |  "A7"GFG efe | d2c c2B | A2A ABA | "D"F6 |
|| "D"ABA faf | e2d d3 | AFA "B7"BcB | "Em"A2G G3 |  "A7"GFG efe | d2c c2B | "A7"A2A ABc | "D"d3- d \}
